!!!COM: Claude Debussy
!!!CNT: Francais
!!!TXO: Francais
!!!OTL: "Fleur des Ble/s"
!!!LYR: Girod
!!!OPR: 
!!!OPS: Op.
!!!ONM: No. 
!!!ENC: Emily Thomas
!!!YOR: CD Sheet Music French Art Songs, The Ultimate Collection
!!!YOR: CD Sheet Music, LLC 2003
!!!ODT: 1881/
!!NB: Vocal melody and text encoded.
**kern	**silbe
*tb16	*
=1	=1
*clefG2	*
*k[b-]	*
*M4/4	*
*MM[Andantino moderato, tempo rubato]	*
8r	.
{8a	{Le
8a	long
8a	des
4cc	ble/s
8dd	que
8dd	la
=2	=2
8ee	bri-
8ee	-se
12gg	Fait
12ee	on-
12gg	-du-
12ff	-ler
12dd	puis
12ee	de/-
8a	-fri-
8a}	-se}
=3	=3
8r	.
{8a	{En
8g	un
8f	de/-
4f	-sor-
8d	-dre
8f	co-
=4	=4
2.a}	-quet,}
4r	.
=5	=5
4r	.
{8g	{J'ai
8g	trou-
8a	-ve/
8a	de
8dd	bon-
8dd	-ne
=6	=6
4ee	pri-
4dd}	-se}
{4ff	{De
8ee	t'y
8dd	cueil-
=7	=7
4gg	-lir
4ee	|
4cc	un
4g	bou-
=8	=8
4.g}	-quet.}
8r	.
2r	.
=9	=9
4r	.
{8a	{mets-
8a	-le
8g	vite
8g	a\
8cc	ton
8cc	cor-
=10	=10
8ee-	-sa-
16ee-}	-ge;}
16r	.
{8cc	{Il
8dd	est
8ee-	fait
8ee-	a\
8dd	ton
8cc	i-
=11	=11
8ff	-ma-
8dd	-ge
12b	En
12cc	me^-
12dd	-me
4dd	temps
8b	que
8d	pour
=13	=13
2.f}	toi}
4r	.
=14	=14
8r	.
{8f	{Ton
8g	pe-
8a	-tit
4bn}	doigt,}
12r	.
{12g	{je
12bn	le
=15	=15
4a	ga-
8a}	-ge,}
8r	.
{8d	{T'a
8e	de/-
8f	ja\
8a	souf-
=16	=16
12b-	fle/
12cc	|
12dd	pour-
[2.dd	-quoi:
=17	=17
*M2/4	*
4dd]}	|}
4r	.
=18	=18
*M4/4	*
{8a	{Ces
8a	e/-
8a	-pis
8a	do-
4cc}	-re/s,}
8r	.
{8dd	{c'est
=19	=19
8ee	l'on-
8ee	-de
12gg	De
12ee	ta
12gg	che-
12ff	-ve-
12dd	-lu-
12ee	-re
8a	blon-
16a}	-de}
16r	.
=20	=20
4r	.
{12a	{Tou-
12g	|
12f	-te
8f	d'or
8c#	et
8d	de
8f	so-
=21	=21
1a}	-leil;}
=22	=22
4r	.
{8g	{Ce
8g	co-
8a	-que-
8a	-li-
8dd	-cot
8dd	qui
=23	=23
4ee	fron-
4dd}	-de}
8r	.
{4ff	{C'est
8dd	ta
=24	=24
4gg	bouche
4ee	au
4cc	sang
4g	ver-
=25	=25
2g}	-meil.}
2r	.
=26	=26
8r	.
{8g	{Et
8a	ces
8f	blu-
4g	-ets,
12r	.
12cc	beau
12cc	mys-
=27	=27
8ee-	-te\-
16ee-}	-re!}
16r	.
{8cc	{Points
8dd	d'a-
8ee-	-zur
8ee-	que
8dd	rien
8cc	n'al-
=28	=28
8ff	te\-
16dd}	-re,}
16r	.
{12b-	{Ces
12cc	|
12dd	blu-
8dd	-ets
8cc	ce
8b-	sont
8d	tes
=29	=29
2.f}	yeux}
{4f	{Si
=30	=30
4e	bleus
8f#	qu'on
8g#	di-
4bn	-rait
8r	.
8dd	sur
=31	=31
2ee	ter-
4ee}	-re,}
{8dd	{Deux
8cc	e/-
=32	=32
4gg	-clats
4ff	tom-
4cc	-be/s
4a	des
=33	=33
2f}	cisux.}
2r	.
==	==
*-	*-
